X:1
T:Title
L:1/8
Q:1/4=80
M:3/4
K:Ab
V:1 treble nm="Church Organ, Staff"
V:1
 AB c2 c2 | dc B2 B2 | cB A2 B2 | AG A2 z2 | AB c2 c2 | dc B2 B2 | cB A2 B2 | AG A2 z2 | GA B2 B2 | %9
w: By~Harmonized~by~R.~F.~S. * * *|||||||||
 FG A2 A2 | c=d e2 c2 | _c=c =d2 z2 | e=d c2 c2 | cB BA A2 | cc dB A2 | G2 A2 z2 |] %16
w: |||||||

